X:160
T:The Old Box Stove
C:Ward Allen
R:jig
M:6/8
L:1/8
Z:abc by Bruce Osborne - bosborne@kos.net
K:F
:|:AB|c2 a B2 g|Aff fcA|Bgg gAB|caa aAB|
c2 a B2 g|Aff fcA|Bcd bge|f4:|
Z:abc by Bruce Osborne - bosborne@kos.net
K:Bb
|:e2|d2 d d2 d|dBF DFB|d^cd B2 g|f3 -fcd|
e2 e e2 e|ecA F3|ede gfe|feg f2 e|
d2 d d2 d|dBF DFB|d^cd B2 b|g3 g3/2f3/2|
e2 g f2 e|d2 f B2 d|c2 e FGA|B4:|
